X:2684
T:Humors of Galway, The
O:england
M:4/4
L:1/8
S:From Frankie Gavin: Frankie Goes to Town
R:Hornpipe
K:G
(3cBA |: GB,DG ~B2GB | dGBd gbag | fed^c =cAFD | GBAG (3FED (3cBA |
GB,DG ~B2GB | dGBd gbag | fedB cAFD |1 G~B3 G2BA :|2 G~B3 G2 b/2b/2b |:
bBeg bagf | e^def gfg^g | aAdf agfe | ed (3^cde d2ab | c'afd (3c^cd ef
|
gfga (3bag ag | fed^c =cAFA |1 G~B3 G2 b/2b/2b :|2 G~B3 G2BA ||


